svg/white/arg.svg

<svg width="32" height="32" viewBox="0 0 32 32" version="1.1" xmlns="http://www.w3.org/2000/svg" xmlns:xlink="http://www.w3.org/1999/xlink"><title>svg/white/arg</title><desc>Created with Sketch.</desc><g id="white/arg" stroke="none" stroke-width="1" fill="none" fill-rule="evenodd"><path d="M16,32 C7.163444,32 0,24.836556 0,16 C0,7.163444 7.163444,0 16,0 C24.836556,0 32,7.163444 32,16 C32,24.836556 24.836556,32 16,32 Z M10.7550442,5.24566372 L10.7656637,5.23504425 C5.51842622,7.82574696 2.92013846,13.8359731 4.62761062,19.4332743 C5.10614209,21.0760819 5.96055038,22.5849306 7.12318584,23.840354 C7.93026549,22.0669027 8.55681416,20.219115 9.30017699,18.4350442 L11.519646,12.8067257 C11.8700885,11.9465487 12.1461947,11.0332743 12.7621239,10.3217699 C13.4099115,9.56778761 14.4081416,9.23858407 15.3638938,9.13238938 C16.5564346,8.96250469 17.7725597,9.15102256 18.8576991,9.6739823 C19.6329204,10.0987611 20.1320354,10.8846018 20.4293805,11.7023009 L23.5090265,19.7730973 C24.0187611,21.1111504 24.4753982,22.4704425 25.0700885,23.7660177 C28.8002045,19.4710243 28.9810097,13.1404987 25.5021116,8.63960966 C22.0232134,4.13872066 15.851445,2.71832649 10.7550442,5.24566372 Z M15.1939823,13.380177 C13.6541593,17.2350442 12.1568142,21.100531 10.6276106,24.9553982 C10.4470796,25.4014159 10.2028319,25.8368142 10.1497345,26.3253097 C10.6700885,26.6969912 11.2860177,26.9093805 11.880708,27.1536283 C15.1010211,28.3566292 18.6831412,28.1167896 21.7143363,26.4952212 C21.8246713,26.4327937 21.9249218,26.3540255 22.0116814,26.2615929 C21.9054867,25.72 21.64,25.220885 21.459469,24.700531 C20.0895575,21.079292 18.7302655,17.4474336 17.3497345,13.8368142 C17.2116814,13.4969912 17.1054867,13.1146903 16.8081416,12.8916814 C16.2559292,12.5306195 15.4063717,12.7430088 15.1939823,13.380177 Z" id="Combined-Shape" fill="#FFF" fill-rule="nonzero"/></g></svg>

<svg width="32" height="32" viewBox="0 0 32 32" xmlns="http://www.w3.org/2000/svg"><path d="M16 32C7.163 32 0 24.837 0 16S7.163 0 16 0s16 7.163 16 16-7.163 16-16 16zM10.755 5.246l.01-.011a11.947 11.947 0 0 0-6.137 14.198 11.023 11.023 0 0 0 2.495 4.407c.807-1.773 1.434-3.62 2.177-5.405l2.22-5.628c.35-.86.626-1.774 1.242-2.485.648-.754 1.646-1.083 2.602-1.19a6.074 6.074 0 0 1 3.494.542c.775.425 1.274 1.21 1.571 2.028l3.08 8.071c.51 1.338.966 2.697 1.561 3.993a11.936 11.936 0 0 0-14.315-18.52zm4.439 8.134c-1.54 3.855-3.037 7.72-4.566 11.575-.18.446-.425.882-.478 1.37.52.372 1.136.584 1.73.829a11.968 11.968 0 0 0 9.834-.659c.11-.062.21-.141.298-.233-.107-.542-.372-1.041-.553-1.561-1.37-3.622-2.729-7.254-4.11-10.864-.137-.34-.244-.722-.54-.945-.553-.361-1.403-.149-1.615.488z" fill="#FFF"/></svg>
